X:2
T:Kitty's Home
R:reel
C:Paul S. Cranford
O:Cape Breton Island
S:http://www.cranfordpub.com
D:currently unrecorded
B:currently unpublished in book form
Z:psc, (re-formatted,updated 9/17/04)
N:
H:                                                        copyrights Cranford Publications, SOCAN
L:1/8
Q:333
M:C|
K:A
F|EFAB ceBc|A2 AE CA,EC|B,FBc dcBA|GBAF GEED|
CEAB ceBc|A2 AE CA,EC|DFBd cABc|eaed cAA:|
|:g|aceG AEFD|{D}E2 AE CA,EC|B,FBc dcBA|[1GBAF GEEg|
aceG AEFD|{D}E2 AE CA,EC|DFBd cABc|eaed cAA:|
[2GBAF GEED|CEAB ceBc|A2 AE CA,EC|DFBd cABc|eaed cAA|]
